src/xmb/monochrome/Uzebox-content.svg

<?xml version="1.0" encoding="UTF-8" standalone="no"?>
<svg
   xmlns:dc="http://purl.org/dc/elements/1.1/"
   xmlns:cc="http://creativecommons.org/ns#"
   xmlns:rdf="http://www.w3.org/1999/02/22-rdf-syntax-ns#"
   xmlns:svg="http://www.w3.org/2000/svg"
   xmlns="http://www.w3.org/2000/svg"
   xmlns:sodipodi="http://sodipodi.sourceforge.net/DTD/sodipodi-0.dtd"
   xmlns:inkscape="http://www.inkscape.org/namespaces/inkscape"
   version="1.1"
   id="Calque_1"
   x="0px"
   y="0px"
   width="64px"
   height="64px"
   viewBox="0 0 64 64"
   enable-background="new 0 0 64 64"
   xml:space="preserve"
   inkscape:version="0.91 r13725"
   sodipodi:docname="Uzebox-content.svg"
   inkscape:export-filename="/home/tp/.config/retroarch/assets/xmb/monochrome/src/Uzebox-content.png"
   inkscape:export-xdpi="360"
   inkscape:export-ydpi="360"><metadata
     id="metadata8"><rdf:RDF><cc:Work
         rdf:about=""><dc:format>image/svg+xml</dc:format><dc:type
           rdf:resource="http://purl.org/dc/dcmitype/StillImage" /></cc:Work></rdf:RDF></metadata><defs
     id="defs6" /><sodipodi:namedview
     pagecolor="#808080"
     bordercolor="#666666"
     borderopacity="1"
     objecttolerance="10"
     gridtolerance="10"
     guidetolerance="10"
     inkscape:pageopacity="0"
     inkscape:pageshadow="2"
     inkscape:window-width="2099"
     inkscape:window-height="1309"
     id="namedview4"
     showgrid="false"
     inkscape:zoom="10.429825"
     inkscape:cx="21.239259"
     inkscape:cy="31.017033"
     inkscape:window-x="205"
     inkscape:window-y="454"
     inkscape:window-maximized="0"
     inkscape:current-layer="Calque_1" /><path
     style="opacity:1;fill:#ffffff;fill-opacity:1;fill-rule:nonzero;stroke:none;stroke-width:1;stroke-linecap:square;stroke-miterlimit:4;stroke-dasharray:none;stroke-opacity:1"
     d="M 16 8 C 14.892 8 14 8.892 14 10 L 14 54 C 14 55.108 14.892 56 16 56 L 48 56 C 49.108 56 50 55.108 50 54 L 50 13.847656 L 44.154297 8 L 16 8 z M 18.875 12 L 45.125 12 C 46.16375 12 47 12.892 47 14 L 47 44 C 47 45.108 46.16375 46 45.125 46 L 18.875 46 C 17.83625 46 17 45.108 17 44 L 17 14 C 17 12.892 17.83625 12 18.875 12 z M 19.75 13 C 18.7805 13 18 13.83999 18 14.882812 L 18 43.117188 C 18 44.16001 18.7805 45 19.75 45 L 44.25 45 C 45.2195 45 46 44.16001 46 43.117188 L 46 14.882812 C 46 13.839991 45.2195 13 44.25 13 L 19.75 13 z "
     id="rect4136" /></svg>

<svg xmlns="http://www.w3.org/2000/svg" xml:space="preserve" width="64" height="64"><path d="M16 8c-1.108 0-2 .892-2 2v44c0 1.108.892 2 2 2h32c1.108 0 2-.892 2-2V13.848L44.154 8zm2.875 4h26.25c1.039 0 1.875.892 1.875 2v30c0 1.108-.836 2-1.875 2h-26.25C17.836 46 17 45.108 17 44V14c0-1.108.836-2 1.875-2m.875 1c-.97 0-1.75.84-1.75 1.883v28.234C18 44.16 18.78 45 19.75 45h24.5c.97 0 1.75-.84 1.75-1.883V14.883C46 13.84 45.22 13 44.25 13z" style="opacity:1;fill:#fff;fill-opacity:1;fill-rule:nonzero;stroke:none;stroke-width:1;stroke-linecap:square;stroke-miterlimit:4;stroke-dasharray:none;stroke-opacity:1"/></svg>
